!!!!SEGMENT: pl-kk--kk-i-10--012_rozycki-jacek--chorus-novae-jerusalem.krn
!!!cenid: 16xx:1204
!!!COM: Różycki, Jacek
!!!COM-rismid: pe30020620
!!!CDT: ~1635-~1703
!!!CNT: Polish
!!!OTL: Chorus novae Jerusalem
!!!PDT:
!!!AGN: Sacred
!!!SMS-siglum: PL-Kk
!!!SMS-shelfmark: Kk.I.10
!!!SMS-shelfwork: 012 W
!!!SMS-variant:
!!!SMS-altvar:
!!!NIFC-rismid: 1001153893
!!!URL-scan: http://repozytorium.nifc.pl/skany/pl-kk-nut--i-10
!!!ONB-nifc: UWAGA: A (skan 0022-0023), T (0071-0072), B (0121-0122). Następny utwór: Aurora lucis rutilat
!!!AIN: 1 alto 1 empty 1 tenor
!!!key:
**kern	**text	**kern	**text	**kern	**text
*part3	*part3	*part2	*part2	*part1	*part1
*staff3	*staff3	*staff2	*staff2	*staff1	*staff1
*Iempty	*	*Itenor	*	*Ialto	*
*I"[Bas]	*	*I"[Tenor]	*	*I"[Alt]	*
*I'B	*	*I'T	*	*I'A	*
*clefF4	*	*clefC4	*	*clefC3	*
*k[b-]	*	*k[b-]	*	*k[b-]	*
*g:	*	*g:	*	*g:	*
*M3/2	*	*M3/2	*	*M3/2	*
=1	=1	=1	=1	=1	=1
*all\right	*	*all\right	*	*all\right	*
*2\right	*	*2\right	*	*2\right	*
!LO:TX:t=H.R. 1681.	!	!LO:TX:t=Motetto DE Resurrectione D(omi)ni HR 1681.	!	!LO:TX:t=H.R.	!
2G\	Cho-	2B-\	Cho-	2d\	Cho-
2G\	-rus	2A/	-rus	2d\	-rus
2F#X\	No-	2A/	No-	2d\	No-
=2	=2	=2	=2	=2	=2
1G\	-vae	4G/	-vae	(2d\	-vae
.	.	4A/	.	.	.
.	.	4B-\	.	2g\)	.
.	.	4c\	.	.	.
2D/	Je-	2d\	Je-	2f\	Je-
=3	=3	=3	=3	=3	=3
2.AA/	-ru-	2.c#X\	-ru-	2.a\	-ru-
4AA/	-sa-	4c#\	-sa-	4a\	-sa-
2AA/	-lem	2c#\	-lem	2a\,<	-lem
=4	=4	=4	=4	=4	=4
2D/	No-	2d\	No-	2a\	No-
2.GG/	-va	2.B-X\	-va	2.g\	-va
4GG/	Me-	4B-\	Me-	4g\	Me-
=5	=5	=5	=5	=5	=5
1AA/	-los	1A\	-los	1e\	-los
2BB-/	dul-	2F/	dul-	2e\	dul-
=6	=6	=6	=6	=6	=6
2C/	-ce-	2E/	-ce-	2c/	-ce-
4GG/	-di-	1G/	-di-	1d\	-di-
4AA/	.	.	.	.	.
4BB-/	.	.	.	.	.
4C/	.	.	.	.	.
=7	=7	=7	=7	=7	=7
*	*	*	*	*custos:d	*
1.D\	-ne	1.F#X/	-ne	1.d\	-ne
!	!	!	!	!LO:LB:g=original	!
=8	=8	=8	=8	=8	=8
2D/	pro-	2F/	pro-	2d\	pro-
*custos:D	*	*	*	*	*
2D/	-mat	2.F/	-mat	2.d\	-mat
!LO:LB:g=original	!	!	!	!	!
2D/	co-	.	.	.	.
*	*	*custos:d	*	*	*
.	.	4A/	co-	4d\	co-
!	!	!LO:LB:g=original	!	!	!
=9	=9	=9	=9	=9	=9
(4BB-/	-lens	4d\	-lens	1f\	-lens
4AA/)	.	4c\	.	.	.
4G\	cum	4B-\	.	.	.
4F\	.	4A\	.	.	.
4E-X\	.	2B-\	.	2g\	cum
4D/	.	.	.	.	.
=10	=10	=10	=10	=10	=10
4C/	.	(4E-X/	cum	1g\	so-
4D/	.	4F/)	.	.	.
!LO:N:acc=#	!	!	!	!	!
2.En\	ſo-	2.G/	so-	.	.
.	.	.	.	2g\	-bri-
4E\	-bri-	4G/	-bri-	.	.
=11	=11	=11	=11	=11	=11
1.F\	-js	1.F/	-js	1.c\	-js
=12	=12	=12	=12	=12	=12
2D/	Pas-	2A/	Pas-	2f#X\	Pas-
2E\	-cha-	2G/	-cha-	2g\	-cha-
2F#X\	-le	2A/	-le	2f#X\	-le
=13	=13	=13	=13	=13	=13
4G\	fes-	1G/	feſ-	2d\	fes-
4F\	.	.	.	.	.
4E-X\	.	.	.	1e-X\	-tum
4D\	.	.	.	.	.
2C/	-tum	2G/	-tum	.	.
=14	=14	=14	=14	=14	=14
2BB-/	gau-	1G/	gau-	1d\	gau-
2.D/	-di-	.	.	.	.
.	.	2F#X/	-di-	2d\	-di-
4D/	.	.	.	.	.
=15	=15	=15	=15	=15	=15
*custos:D	*	*	*	*	*
1.GG/	-js	1.G/	-js	1.d\	-js
!LO:LB:g=original	!	!	!	!	!
=16	=16	=16	=16	=16	=16
2D/	pro-	2F#X/	pro-	2d\	pro-
2D/	-mat	2.F#/	-mat	2.d\	-mat
2D/	co-	.	.	.	.
*	*	*	*	*custos:f	*
.	.	4A/	co-	4d\	co-
!	!	!	!	!LO:LB:g=original	!
=17	=17	=17	=17	=17	=17
4BB-/	-lens	4d\	-lens	1f\	-lens
4AA/	.	4c\	.	.	.
4GG/	.	4B-\	.	.	.
4FF/	.	4A\	.	.	.
*	*	*custos:f	*	*	*
4E-X\	cum	2B-\	.	2g\	cum
4D\	.	.	.	.	.
!	!	!LO:PB:g=original	!	!	!
=18	=18	=18	=18	=18	=18
4C/	.	(4E/	cum	1g\	so-
4D\	.	4F/)	.	.	.
!LO:N:acc=#	!	!	!	!	!
2.En\	so-	2.G/	so-	.	.
.	.	.	.	2g\	-bri-
4E\	-bri-	4G/	-bri-	.	.
=19	=19	=19	=19	=19	=19
1.F\	-js	1.F/	-js	1.c\	-js
=20	=20	=20	=20	=20	=20
2D/	Pas-	2A/	Pas-	2f#X\	Pas-
2E\	-cha-	2G/	-cha-	2g\	-cha-
2F#X\	-le	2A/	-le	2f#X\	-le
=21	=21	=21	=21	=21	=21
4G\	fes-	1G/	feſ-	2d\	fes-
4F\	.	.	.	.	.
4E-X\	.	.	.	1e-X\	-tum
4D\	.	.	.	.	.
2C/	-tum	2G/	-tum	.	.
=22	=22	=22	=22	=22	=22
2BB-/	gau-	1G/	gau-	1d\	gau-
2.D/	.	.	.	.	.
.	.	2F#X/	-di-	2d\	-di-
4D/	-di-	.	.	.	.
=23-	=23	=23	=23	=23	=23
1.GG/;	-js	1.G/	-js	1.d\	-js
!LO:LB:g=original	!	!	!	!	!
=24||	=24||	=24||	=24||	=24||	=24||
2G\	Quo	2d\	Quo	2g\	Quo
2G\	chris-	2B-\	Chris-	2g\	Chry-
2D/	-tus	2A/	-tus	2f#X\	-stus
=25	=25	=25	=25	=25	=25
1E-X\	in-	1G/	in-	(2g\	in-
.	.	.	.	2e-X\)	.
*	*	*	*	*custos:e	*
2BB-/	-vi-	2G/	-vi-	2d\	-vi-
!	!	!	!	!LO:LB:g=original	!
=26	=26	=26	=26	=26	=26
2C/	-ctus	1G/	-ctus	2e-X\	-ctus
1D\	Le-	.	.	1d\	Le-
.	.	2F#X/	Le-	.	.
=27	=27	=27	=27	=27	=27
*	*	*custos:d	*	*	*
1.GG/	-o	1.G/	-o	1.d\	-o
!	!	!LO:LB:g=original	!	!	!
=28	=28	=28	=28	=28	=28
2G\	dra-	2d\	dra-	2g\	dra-
2B-\	-co-	2B-\	-co-	2f\	-co-
2D/	-ne	2B-\	-ne	2f\	-ne
=29	=29	=29	=29	=29	=29
1E-X\	ſur-	1B-\	ſur-	1g\	ſur-
2G\	-gens	2B-\	-gens	2g\	-gens
=30	=30	=30	=30	=30	=30
(2E-X\	ob-	1B-\	ob-	2g\	ob-
2.F\)	.	.	.	2.f\	.
.	.	2A/	-ru-	.	.
4F\	-ru-	.	.	4f\	-ru-
=31	=31	=31	=31	=31	=31
1.BB-/	-to	1.B-\	-to	1.f\	-to
=32	=32	=32	=32	=32	=32
2BB-/	dum	2B-\	dum	2f\	dum
2D/	vo-	2B-\	vo-	2f\	vo-
*custos:F	*	*	*	*	*
2E\	-ce	2B-\	-ce	2g\	-ce
!LO:LB:g=original	!	!	!	!	!
=33-	=33	=33	=33	=33	=33
1F\	vi-	1A\	vi-	1f\	vi-
2G\	-va	2G/	-va	2d\	-va
=34	=34	=34	=34	=34	=34
2.F\	per-	2.A/	per-	2.f\	per-
4F\	-ſo-	4A/	-ſo-	4f\	-ſo-
2F\	-nat	2A/	-nat	2f\	-nat
!	!	!	!	!LO:LB:g=original	!
=35	=35	=35	=35	=35	=35
2F\	a	2A/	à	2f\	à
2D/	mor-	2d\	mor-	2a\	mor-
!	!	!LO:N:acc=#	!	!	!
2E-X\	-te	2Bn\	-te	2g\	-te
=36	=36	=36	=36	=36	=36
1C/	fun-	1c\	fun-	1g\	fun-
2E-X\	-ctos	2c\	-ctos	2g\	-ctos
=37	=37	=37	=37	=37	=37
2F\	ex-	1c\	ex-	2a-X\	ex-
2.G\	.	.	.	2.g\	.
!	!	!LO:N:acc=#	!	!	!
.	.	2Bn\	-ci-	.	.
4G\	-ci-	.	.	4g\	-ci-
!	!	!LO:LB:g=original	!	!	!
=38	=38	=38	=38	=38	=38
1.C/	-tat	1.c\	-tat,	1.g\	-tat
=39	=39	=39	=39	=39	=39
2C/	à	2c\	à	2e\	à
2AA/	mor-	2e\	mor-	2a\	mor-
2D/	-te	2d\	-te	2f#X\	-te
=40	=40	=40	=40	=40	=40
1GG/	fun-	1d\	fun-	1g\	fun-
2BB-/	-ctos	2d\	-ctos	2g\	-ctos
=41	=41	=41	=41	=41	=41
*custos:D	*	*	*	*	*
2C/	ex-	2e-X\	ex-	1g\	ex-
!LO:LB:g=original	!	!	!	!	!
2.D/	.	2.d\	.	.	.
.	.	.	.	2f#X\	-ci-
4D/	-ci-	4d\	-ci-	.	.
=42	=42	=42	=42	=42	=42
1.GG/	-tat	1.d\	-tat	1.g\	-tat
!	!	!	!	!LO:LB:g=original	!
=43||	=43||	=43||	=43||	=43||	=43||
2G\	Tri-	2B-\	Tri-	2d\	Tri-
2G\	-um-	2A/	-um-	2d\	-um-
2F#X\	-phat	2A/	-phat	2d\	-phat
=44	=44	=44	=44	=44	=44
1G\	il-	4G/	il-	(2d\	il-
.	.	4A/	.	.	.
.	.	4B-\	.	2g\)	.
.	.	4c\	.	.	.
2D/	-le	2d\	-le	2f\	-le
=45	=45	=45	=45	=45	=45
2.AA/	splen-	2.c#X\	ſplen-	2.a\	ſplen-
4AA/	-di-	4c#\	-di-	4a\	-di-
2AA/	-de	2c#\	-de	2a\	-de
=46	=46	=46	=46	=46	=46
*	*	*custos:b	*	*	*
2D/	ex	2d\	ex	2a\	ex
!	!	!LO:LB:g=original	!	!	!
2.GG/	dig-	2.B-\	dig-	2.g\	dig-
4GG/	-nus	4B-\	-nus	4g\	-nus
=47	=47	=47	=47	=47	=47
1AA/	am-	1A\	am-	1e\	am-
2BB-/	-pli-	2F/	-pli-	2e\	-pli-
=48	=48	=48	=48	=48	=48
2C/	-tu-	2E/	-tu-	2c/	-tu-
4GG/	-di-	1G/	-di-	1d\	-di-
4AA/	.	.	.	.	.
4BB-/	.	.	.	.	.
4C/	.	.	.	.	.
=49	=49	=49	=49	=49	=49
1.D\	-ne	1.F#X/	-ne	1.d\	-ne
!LO:LB:g=original	!	!	!	!	!
=50	=50	=50	=50	=50	=50
2D/	so-	2F/	so-	2d\	ſo-
2D/	-li-	2.F/	-li-	2.d\	-li-
2D/	-que	.	.	.	.
*	*	*	*	*custos:f	*
.	.	4A/	-que	4d\	-que
!	!	!	!	!LO:LB:g=original	!
=51	=51	=51	=51	=51	=51
4BB-/	Po-	4d\	po-	(1f\	po-
4AA/	.	4c\	.	.	.
4G\	-li	4B-\	.	.	.
4F\	.	4A\	.	.	.
4E-X\	.	2B-\	-li	2g\)	-li
4D\	.	.	.	.	.
=52	=52	=52	=52	=52	=52
4C/	.	4E/	Pa-	1g\	Pa-
4D\	.	4F/	.	.	.
!LO:N:acc=#	!	!	!	!	!
2.En\	Pa-	2.G/	.	.	.
.	.	.	.	2g\	-tri-
4E\	-tri-	4G/	-tri-	.	.
=53	=53	=53	=53	=53	=53
1.F\	-am	1.F/	-am	1.c\	-am
=54	=54	=54	=54	=54	=54
(2D/	u-	2A/	u-	2f#X\	U-
2E\)	-nam	2G/	-nam	2g\	-nam
*	*	*custos:g	*	*	*
2F\	.	2A/	fa-	2f#X\	fa-
!	!	!LO:LB:g=original	!	!	!
=55	=55	=55	=55	=55	=55
4G\	fa-	1G/	-cit	2d\	-cit
4F\	.	.	.	.	.
4E-X\	.	.	.	1e-X\	Rem
4D\	.	.	.	.	.
2C/	-cit	2G/	Rem	.	.
=56	=56	=56	=56	=56	=56
2BB-/	Rem	1G/	pu-	1d\	pu-
2.D/	pu-	.	.	.	.
.	.	2F#X/	-bli-	2d\	-bli-
*custos:GG	*	*	*	*	*
4D/	-bli-	.	.	.	.
!LO:PB:g=original	!	!	!	!	!
=57-	=57	=57	=57	=57	=57
1.GG/	-cam	1.G/	-cam	1.d\	-cam
=58	=58	=58	=58	=58	=58
2D/	tri-	2F#X/	tri-	2d\	tri-
2D/	-um-	2.F#/	-um-	2.d\	-um-
2D/	-phat	.	.	.	.
.	.	4A/	-phat	4d\	-phat
=59-	=59	=59	=59	=59	=59
4BB-/	il-	4d\	il-	1f\	il-
4AA/	.	4c\	.	.	.
4GG/	.	4B-\	.	.	.
4FF/	.	4A\	.	.	.
*	*	*	*	*custos:g	*
4E-X\	-le	2B-\	-le	2g\	-le
4D\	.	.	.	.	.
!	!	!	!	!LO:PB:g=original	!
=60	=60	=60	=60	=60	=60
4C/	ſplen-	4E/	ſplen-	1g\	ſplen-
4D\	.	4F/	.	.	.
!LO:N:acc=#	!	!	!	!	!
2.En\	.	2.G/	.	.	.
.	.	.	.	2g\	-di-
4E\	-di-	4G/	-di-	.	.
=61	=61	=61	=61	=61	=61
1.F\	-de	1.F/	-de	1.c\	-de
=62	=62	=62	=62	=62	=62
2D/	qui-	2A/	qui-	2f#X\	qui
2E\	-dig-	2G/	-dig-	2g\	dig-
2F#X\	-nus	2A/	-nus	2f#X\	-nus
=63	=63	=63	=63	=63	=63
4G\	eſt	1G/	am-	2d\	eſt
4F\	.	.	.	.	.
4E-X\	.	.	.	1e-X\	am-
4D\	.	.	.	.	.
2C/	am-	2G/	-pli-	.	.
=64	=64	=64	=64	=64	=64
2BB-/	-pli-	1G/	-tu-	1d\	-pli-
2.D/	-tu-	.	.	.	.
.	.	2F#X/	-di-	2d\	-tudi-
4D/	-di-	.	.	.	.
=65	=65	=65	=65	=65	=65
1.GG/	-ne	1.G/	-ne	1.d\	-ne
!LO:LB:g=original	!	!LO:LB:g=original	!	!	!
=66||	=66||	=66||	=66||	=66|	=66|
2G\	Ip-	2d\	Ip-	2g\	Ip-
2G\	-sum	2B-\	-sum	2g\	-sum
2D/	ca-	2A/	ca-	2f#X\	ca-
=67	=67	=67	=67	=67	=67
1E-X\	-nen-	1G/	-nen-	(2g\	-nen-
.	.	.	.	2e-X\)	.
2BB-/	-do	2G/	-do	2d\	-do
!	!	!	!	!LO:LB:g=original	!
=68	=68	=68	=68	=68	=68
2C/	ſup-	1G/	sup-	2e-X\	sup-
2.D/	.	.	.	2.d\	.
.	.	2F#X/	-pli-	.	.
4D/	-pli-	.	.	4d\	-pli-
=69	=69	=69	=69	=69	=69
1.GG/	-ces	1.G/	-ces	1.d\	-ces
=70	=70	=70	=70	=70	=70
2G\	Re-	2d\	Re-	2g\	Re-
2B-\	-gem	2B-\	-gem	2f\	-gem
2D/	pre-	2B-\	pre-	2f\	pre-
=71	=71	=71	=71	=71	=71
1E-X\	-ca-	1B-\	-ce-	1g\	-ce-
2G\	-mur	2B-\	-mur	2g\	-mur
=72-	=72	=72	=72	=72	=72
2E-X\	mi-	1B-\	mi-	2g\	mi-
2.F\	.	.	.	2.f\	.
.	.	2A/	-li-	.	.
4F\	-li-	.	.	4f\	-li-
=73	=73	=73	=73	=73	=73
1.BB-/	-tes	1.B-\	-tes	1.f\	-tes
=74	=74	=74	=74	=74	=74
2BB-/	ut	2B-\	ut	2f\	ut
2D/	in	2B-\	in	2f\	in
*custos:F	*	*	*	*	*
2E\	ſu-	2B-\	ſu-	2g\	ſu-
!LO:LB:g=original	!	!	!	!	!
=75-	=75	=75	=75	=75	=75
1F\	-o	1A\	-o	1f\	-o
*	*	*	*	*custos:f	*
2G\	cla-	2G/	cla-	2d\	cla-
!	!	!	!	!LO:LB:g=original	!
=76	=76	=76	=76	=76	=76
2.F\	-riſ-	2.A/	-riſ-	2.f\	-riſ-
4F\	-si-	4A/	-si-	4f\	-si-
2F\	-mo	2A/	-mo	2f\	-mo
!	!	!LO:LB:g=original	!	!	!
=77	=77	=77	=77	=77	=77
2F\	Nos	2A/	Nos	2f\	Nos
2D/	or-	2d\	or-	2a\	or-
!	!	!LO:N:acc=#	!	!	!
2E-X\	-di-	2Bn\	-di-	2g\	-di-
=78	=78	=78	=78	=78	=78
1C/	-net	1c\	-net	[1g\	-net
2E-X\	Pa-	2c\	Pa-	2g\]	.
=79-	=79	=79	=79	=79	=79
2F\	-la-	1c\	-la-	2a-X\	Pa-
2.G\	.	.	.	2.g\	-la-
!	!	!LO:N:acc=#	!	!	!
.	.	2Bn\	-ti-	.	.
4G\	-ti-	.	.	4g\	-tio
=80	=80	=80	=80	=80	=80
1.C/	-o	1.c\	-o	1.g\	.
=81	=81	=81	=81	=81	=81
2C/	Nos	2c\	Nos	2e\	Nos
2AA/	or-	2e\	or-	2a\	or-
2D/	-di-	2d\	-di-	2f#X\	-di-
=82	=82	=82	=82	=82	=82
1GG/	-net	1d\	-net	1g\	-net
2BB-/	Pa-	2d\	.	2g\	Pa-
=83	=83	=83	=83	=83	=83
2C/	-la-	2e-X\	Pa-	1g\	-la-
2.D/	.	2.d\	-la-	.	.
.	.	.	.	2f#X\	-ti-
4D/	-ti-	4d\	-ti-	.	.
=84-	=84	=84	=84	=84	=84
1.GG/	-o	1.d\	-o	1.g\	-o
!LO:LB:g=original	!	!	!	!LO:LB:g=original	!
=85-	=85	=85	=85	=85	=85
2G\	Quae-	2d\	Quae-	2g\	Quae-
2G\	-su-	2B-\	-su-	2g\	-su-
*	*	*custos:g	*	*	*
2D/	-mus	2A/	-mus	2f#X\	-mus
!	!	!LO:LB:g=original	!	!	!
=86	=86	=86	=86	=86	=86
1E-X\	au-	1G/	au-	(2g\	au-
.	.	.	.	2e-X\)	.
2BB-/	-ctor	2G/	-ctor	2d\	-ctor
=87	=87	=87	=87	=87	=87
2C/	om-	1G/	om-	2e-X\	om-
2.D/	.	.	.	2.d\	.
.	.	2F#X/	-ni-	.	.
4D/	ni-	.	.	4d\	-ni-
=88	=88	=88	=88	=88	=88
1.GG/	-um	1.G/	-um	1.d\	-um
=89	=89	=89	=89	=89	=89
2G\	In	2d\	In	2g\	In
2B-\	hoc	2B-\	hoc	2f\	hoc
2D/	Pas-	2B-\	Pas-	2f\	Pas-
=90	=90	=90	=90	=90	=90
1E-X\	-cha-	1B-\	-cha-	1g\	-cha-
2G\	-li	2B-\	-li	2g\	-li
=91	=91	=91	=91	=91	=91
2E-X\	gau-	1B-\	gau-	2g\	gau-
2.F\	.	.	.	2.f\	.
.	.	2A/	-di-	.	.
4F\	-di-	.	.	4f\	-di-
=92	=92	=92	=92	=92	=92
1.BB-/	-o	1.B-\	-o	1.f\	-o
=93	=93	=93	=93	=93	=93
2BB-/	ab	2B-\	ab	2f\	ab
2D/	om-	2B-\	om-	2f\	om-
*	*	*	*	*custos:f	*
2E\	-ni	2B-\	-ni	2g\	-ni
!	!	!	!	!LO:LB:g=original	!
=94-	=94	=94	=94	=94	=94
1F\	mor-	1A\	mor-	1f\	mor-
*custos:F	*	*	*	*	*
2G\	-tis	2G/	-tis	2d\	-tis
!LO:LB:g=original	!	!	!	!	!
=95-	=95	=95	=95	=95	=95
2.F\	im-	2.A/	im-	2.f\	im-
4F\	-pe-	4A/	-pe-	4f\	-pe-
2F\	-tu	2A/	-tu	2f\	-tu
!	!	!LO:LB:g=original	!	!	!
=96	=96	=96	=96	=96	=96
2F\	Tu-	2A/	Tu-	2f\	Tu-
2D/	-um	2d\	-um	2a\	-um
!	!	!LO:N:acc=#	!	!	!
2E-X\	de-	2Bn\	de-	2g\	de-
=97	=97	=97	=97	=97	=97
1C/	-fen-	1c\	-fen-	1g\	-fen-
2E-X\	-de	2c\	-de	2g\	-de
=98	=98	=98	=98	=98	=98
2F\	po-	1c\	po-	2a-X\	Po-
2.G\	.	.	.	2.g\	.
!	!	!LO:N:acc=#	!	!	!
.	.	2Bn\	-pu-	.	.
4G\	pu-	.	.	4g\	-pu-
=99-	=99	=99	=99	=99	=99
1.C/	-lum	1.c\	-lum	1.g\	-lum
=100	=100	=100	=100	=100	=100
2C/	Tu-	2c\	Tu-	2e\	-Tu-
2AA/	-um	2e\	-um	2a\	-um
2D/	de-	2d\	de-	2f#X\	de-
=101	=101	=101	=101	=101	=101
1GG/	-fen-	1d\	-fen-	1g\	-fen-
2BB-/	-de	2d\	-de	2g\	-de
=102	=102	=102	=102	=102	=102
2C/	po-	2e-X\	po-	1g\	Po-
2.D/	.	2.d\	.	.	.
!	!	!	!	!LO:TX:t=P:problem=♯above	!
.	.	.	.	2f#X\	-pu-
4D/	-pu-	4d\	-pu-	.	.
=103	=103	=103	=103	=103	=103
*	*	*custos:b	*	*	*
1.GG/	-lum	1.d\	-lum	1.g\	-lum
!LO:LB:g=original	!	!LO:PB:g=original	!	!LO:LB:g=original	!
=104	=104	=104	=104	=104	=104
2G\	Glo-	2B-\	Glo-	2d\	Glo-
2G\	-ri-	2A/	-ri-	2d\	-ri-
2F#X\	-a	2A/	-a	2d\	-a
=105	=105	=105	=105	=105	=105
1G\	Ti-	4G/	Ti-	2d\	Ti-
.	.	4A/	.	.	.
.	.	4B-\	.	2g\	-bi
.	.	4c\	.	.	.
2D/	-bi	2d\	-bi	2f\	.
=106	=106	=106	=106	=106	=106
2.AA/	D(o)-	2.c#X\	D(o)-	2.a\	D(o)-
4AA/	-m(i)-	4c#\	-m(i)-	4a\	-m(i)-
2AA/	-(n)e	2c#\	-(n)e	2a\	-(n)e
=107	=107	=107	=107	=107	=107
2D/	qui	2d\	qui	2a\	qui
2.GG/	ſur-	2.B-\	ſur-	2.g\	ſur-
4GG/	-re-	4B-\	-re-	4g\	-re-
=108	=108	=108	=108	=108	=108
2AA/	-xi-	1A\	-xi-	1e\	-xi-
2AA/	-sti	.	.	.	.
2BB-/	à	2F/	-sti	2d\	-sti
=109	=109	=109	=109	=109	=109
2C/	-mor-	2E/	à	2c/	à
4GG/	-tu-	1G/	mor-	2.d\	mor-
4AA/	.	.	.	.	.
4BB-/	.	.	.	.	.
4C/	.	.	.	4d\	-tu-
=110	=110	=110	=110	=110	=110
1.D\	-is	1.F#X/	-tuis	1.d\	-is
=111	=111	=111	=111	=111	=111
2D/	cum	2F/	cum	2d\	cum
2D/	Pa-	2.F/	Pa-	2.d\	Pa-
*custos:b	*	*	*	*	*
2D/	-tre	.	.	.	.
*	*	*custos:d	*	*	*
.	.	4A/	-tre	4d\	-tre
!LO:LB:g=original	!	!LO:LB:g=original	!	!LO:LB:g=original	!
=112	=112	=112	=112	=112	=112
4BB-/	ex	4d\	san-	1f\	San-
4AA/	.	4c\	.	.	.
4G\	San-	4B-\	.	.	.
4F\	.	4A\	.	.	.
4E-X\	-cto	2B-\	-cto	2g\	-cto
4D\	.	.	.	.	.
=113	=113	=113	=113	=113	=113
4C/	Spi-	4E/	Spi-	1g\	Spi-
4D/	.	4F/	.	.	.
!LO:N:acc=#	!	!	!	!	!
2.En\	.	2.G/	-ri-	.	.
.	.	.	.	2g\	-ri-
4E\	-ri-	4G/	-tu	.	.
=114	=114	=114	=114	=114	=114
1.F\	-tu	1.F/	.	1.c\	-tu
=115	=115	=115	=115	=115	=115
2D/	in	2A/	in	2f#X\	in
2E\	ſem-	2G/	ſem-	2g\	ſem-
2F#X\	-pi-	2A/	-pi-	2f#X\	-pi-
=116	=116	=116	=116	=116	=116
4G\	-ter-	1G/	-ter-	2d\	-ter-
4F\	.	.	.	.	.
4E-X\	.	.	.	1e-X\	-na
4D\	.	.	.	.	.
2C/	.	2G/	-na	.	.
=117	=117	=117	=117	=117	=117
2BB-/	-na	1G/	ſae-	1d\	ſae-
2.D/	ſae-	.	.	.	.
.	.	2F#X/	-cu-	2d\	-cu-
4D/	-cu-	.	.	.	.
=118	=118	=118	=118	=118	=118
1.GG/	-la	1.G/	-la	1.d\	-la
=119	=119	=119	=119	=119	=119
2D/	in	2F#X/	cum	2d\	cum
2D/	sem-	2.F#/	P(at)-	2.d\	P(a)-
*custos:BB	*	*	*	*	*
2D/	-pi-	.	.	.	.
*	*	*custos:d	*	*	*
.	.	4A/	-re	4d\	-(t)re
!LO:PB:g=original	!	!LO:LB:g=original	!	!	!
=120-	=120	=120	=120	=120	=120
4BB-/	-ter-	4d\	San-	1f\	San-
4AA/	.	4c\	.	.	.
4GG/	.	4B-\	.	.	.
4FF/	.	4A\	.	.	.
4E-X\	-na	2B-\	.	2g\	-cto
4D\	.	.	.	.	.
=121	=121	=121	=121	=121	=121
4C/	.	4E/	-cto	1g\	Spi-
4D/	.	4F/	.	.	.
!LO:N:acc=#	!	!	!	!	!
2.En\	ſae-	2.G/	Spi-	.	.
.	.	.	.	2g\	-ri-
4E\	-cu-	4G/	-ri-	.	.
=122	=122	=122	=122	=122	=122
1.F\	-la	1.F/	-tu	1.c\	-tu
!	!	!	!	!LO:PB:g=original	!
=123	=123	=123	=123	=123	=123
2D/	in	2A/	in	2f#X\	in
2E\	ſem-	2G/	ſem-	2g\	ſem-
2F#X\	-pi-	2A/	-pi-	2f#X\	-pi-
=124	=124	=124	=124	=124	=124
4G\	-ter-	1G/	-ter-	2d\	-ter-
4F\	.	.	.	.	.
4E-X\	.	.	.	1e-X\	-na
4D\	.	.	.	.	.
2C/	.	2G/	-na	.	.
=125	=125	=125	=125	=125	=125
2BB-/	-na	1D/	ſae-	1d\	ſae-
2.D/	ſae-	.	.	.	.
.	.	2F#X/	-cu-	2d\	-cu-
4D/	-cu-	.	.	.	.
=126	=126	=126	=126	=126	=126
2GG/	-la	2G/	-la	2d,<\	-la
!	!	!LO:N:acc=#	!	!	!
2.G\	a-	2Bn\	a-	2d\	a-
*	*	*custos:c	*	*	*
.	.	2B\	-men	2d\	-men
4F\	.	.	.	.	.
!	!	!LO:LB:g=original	!	!	!
=127	=127	=127	=127	=127	=127
*custos:BB	*	*	*	*	*
2E-X\	.	2c\	a-	2e-X\	a-
!LO:LB:g=original	!	!	!	!	!
!LO:N:acc=#	!	!	!	!	!
1BBn/	.	1d\	.	2.g\	.
.	.	.	.	4f\	.
=128	=128	=128	=128	=128	=128
2C/	.	2G/	.	2e-X\	.
1GG/	.	2.G/	.	1d\	.
.	.	4F/	.	.	.
=129	=129	=129	=129	=129	=129
2C/	.	2E-X/	.	2c/	.
1BBn/	.	2D/	.	2d\	.
.	.	1d\	.	2g\	.
=130	=130	=130-	=130	=130	=130
1.C/	.	.	.	1.g\	.
.	.	4c\	.	.	.
.	.	4B-\	.	.	.
!	!	!LO:TX:t=P:problem=nuta przekreślona	!	!	!
.	.	1c\	.	.	.
=131-	=131	=131-	=131	=131	=131
[1.GG/;l	-men	.	.	[1.g\;<l	-men
!	!	!LO:N:acc=#	!	!	!
.	.	4Bn\	.	.	.
.	.	4A\	.	.	.
!	!	!LO:N:acc=#	!	!	!
.	.	2Bn\	.	.	.
=132	=132	=132	=132	=132	=132
!	!	!LO:N:vis=0	!	!	!
1.GG/]	.	1.c\;<	-men	1.g\]	.
==	==	==	==	==	==
*-	*-	*-	*-	*-	*-
!!!system-decoration: s1,s2,s3
!!!RDF**kern: > = above
!!!RDF**kern: < = below
!!!RDF**kern: l = terminal long
!!!EED: Andrzej Borzym
!!!EST: 2021-07-07
!!!ENC: Andrzej Gręziak
!!!END: 2021-06-25
